site/static/docs/5.2/assets/img/webpack.svg

<svg viewBox="0 0 1200 1200" xmlns="http://www.w3.org/2000/svg"><path d="m600 0 530.3 300v600l-530.3 300-530.3-300v-600z" fill="#fff"/><path d="m1035.6 879.3-418.1 236.5v-184.2l260.5-143.3zm28.6-25.9v-494.6l-153 88.3v317.9zm-901.5 25.9 418.1 236.5v-184.2l-260.5-143.3zm-28.6-25.9v-494.6l153 88.3v317.9zm17.9-526.6 428.8-242.6v178.1l-274.7 151.1-2.1 1.2zm894.3 0-428.8-242.6v178.1l274.7 151.1 2.1 1.2z" fill="#8ed6fb"/><path d="m580.8 889.7-257-141.3v-280l257 148.4zm36.7 0 257-141.3v-280l-257 148.4zm-276.3-453.7 258-141.9 258 141.9-258 149z" fill="#1c78c0"/></svg>

<svg viewBox="0 0 1200 1200" xmlns="http://www.w3.org/2000/svg"><path d="m600 0 530.3 300v600L600 1200 69.7 900V300z" fill="#fff"/><path d="m1035.6 879.3-418.1 236.5V931.6L878 788.3zm28.6-25.9V358.8l-153 88.3V765zm-901.5 25.9 418.1 236.5V931.6L320.3 788.3zm-28.6-25.9V358.8l153 88.3V765zM152 326.8 580.8 84.2v178.1L306.1 413.4l-2.1 1.2zm894.3 0L617.5 84.2v178.1l274.7 151.1 2.1 1.2z" fill="#8ed6fb"/><path d="m580.8 889.7-257-141.3v-280l257 148.4zm36.7 0 257-141.3v-280l-257 148.4zM341.2 436l258-141.9 258 141.9-258 149z" fill="#1c78c0"/></svg>
